X: 36545
T: Setting Sun, The
R: jig
M: 6/8
K: Dmajor
AFd AFd|AFD E2F|GFG Eed|cBc dcB|AFd AFd|AFD E2F|GFG Eed|cBc d2B:|
Adf agf|efg B2d|cBc ABc|dAG FED|Adf agf|efg B2d|cBc ABc|dfe d3:|

